navigator/static/images/icons/registered_users.svg

<?xml version="1.0" encoding="UTF-8" standalone="no"?>
<svg width="47px" height="41px" viewBox="0 0 47 41" version="1.1" xmlns="http://www.w3.org/2000/svg" xmlns:xlink="http://www.w3.org/1999/xlink">
    <!-- Generator: Sketch 39.1 (31720) - http://www.bohemiancoding.com/sketch -->
    <title>Page 1</title>
    <desc>Created with Sketch.</desc>
    <defs></defs>
    <g id="solution-3" stroke="none" stroke-width="1" fill="none" fill-rule="evenodd">
        <g id="listing" transform="translate(-989.000000, -1185.000000)">
            <g id="Page-1" transform="translate(989.000000, 1185.000000)">
                <path d="M42.3267,32.3419 L35.1057,28.7319 C34.1727,28.2649 33.5837,27.3109 33.5837,26.2679 L33.5837,23.4349 C33.7857,23.2039 34.0187,22.9069 34.2667,22.5559 C35.2507,21.1669 35.9947,19.6369 36.5107,18.0329 C37.4377,17.7479 38.1187,16.8919 38.1187,15.8749 L38.1187,12.8509 C38.1187,12.1859 37.8237,11.5909 37.3627,11.1749 L37.3627,6.8039 C37.3627,6.8039 38.2607,-0.0001 29.0477,-0.0001 C19.8337,-0.0001 20.7317,6.8039 20.7317,6.8039 L20.7317,11.1749 C20.2717,11.5909 19.9767,12.1859 19.9767,12.8509 L19.9767,15.8749 C19.9767,16.6719 20.3947,17.3729 21.0217,17.7779 C21.7767,21.0679 23.7557,23.4349 23.7557,23.4349 L23.7557,26.1979 C23.7557,27.2049 23.2057,28.1329 22.3207,28.6149 L15.5767,32.2939 C13.6287,33.3559 12.4167,35.3979 12.4167,37.6169 L12.4167,40.0659 L45.6787,40.0659 L45.6787,37.7649 C45.6787,35.4689 44.3807,33.3689 42.3267,32.3419" id="Fill-1" fill="#1E1348"></path>
                <path d="M13.7432,32.1604 L18.2382,29.7084 C18.2122,29.6834 18.2342,29.6764 18.2872,29.6814 L20.4872,28.4824 C21.3722,27.9984 21.9222,27.0724 21.9222,26.0634 L21.9222,23.3004 C21.9222,23.3004 21.1202,22.3364 20.3412,20.7884 C20.3412,20.7874 20.3402,20.7874 20.3402,20.7874 C20.2382,20.5834 20.1382,20.3694 20.0392,20.1484 C20.0252,20.1174 20.0112,20.0874 19.9982,20.0564 C19.8972,19.8274 19.7992,19.5914 19.7062,19.3434 C19.7002,19.3274 19.6952,19.3104 19.6892,19.2944 C19.6072,19.0744 19.5312,18.8484 19.4572,18.6164 C19.4382,18.5534 19.4182,18.4904 19.3992,18.4274 C19.3232,18.1714 19.2512,17.9114 19.1892,17.6424 C18.5612,17.2384 18.1432,16.5374 18.1432,15.7414 L18.1432,12.7174 C18.1432,12.0524 18.4382,11.4574 18.8992,11.0414 L18.8992,6.7714 C17.8302,5.9434 16.1752,5.1574 13.6072,5.1574 C6.3782,5.1574 6.0472,11.2054 6.0472,11.2054 L6.0472,14.9814 C5.6502,15.3404 5.2912,15.8534 5.2912,16.4284 L5.2912,19.0404 C5.2912,19.7284 5.6542,20.3334 6.1942,20.6834 C6.8462,23.5244 9.0372,25.5684 9.0372,25.5684 L9.0372,27.9554 C9.0372,28.8254 8.5622,29.6264 7.7972,30.0434 L2.7292,33.2204 C1.0472,34.1384 0.0002,35.9004 0.0002,37.8174 L0.0002,39.9314 L10.5832,39.9314 L10.5832,37.4834 C10.5832,35.2644 11.7952,33.2224 13.7432,32.1604" id="Fill-3" fill="#1E1348"></path>
                <path d="M37.6473,28.8223 C38.2953,27.3613 39.7283,26.0113 41.4513,26.0113 C43.7713,26.0113 45.4423,27.8993 45.6523,30.1493 C45.6523,30.1493 45.7663,30.7083 45.5173,31.7133 C45.1773,33.0823 44.3783,34.2993 43.3013,35.2273 L37.6473,40.0653 L31.9943,35.2273 C30.9163,34.2993 30.1183,33.0823 29.7783,31.7133 C29.5283,30.7083 29.6423,30.1493 29.6423,30.1493 C29.8523,27.8993 31.5233,26.0113 33.8433,26.0113 C35.5663,26.0113 36.9993,27.3613 37.6473,28.8223" id="Fill-5" fill="#B00D23"></path>
                <path d="M37.6473,28.8223 C38.2953,27.3613 39.7283,26.0113 41.4513,26.0113 C43.7713,26.0113 45.4423,27.8993 45.6523,30.1493 C45.6523,30.1493 45.7663,30.7083 45.5173,31.7133 C45.1773,33.0823 44.3783,34.2993 43.3013,35.2273 L37.6473,40.0653 L31.9943,35.2273 C30.9163,34.2993 30.1183,33.0823 29.7783,31.7133 C29.5283,30.7083 29.6423,30.1493 29.6423,30.1493 C29.8523,27.8993 31.5233,26.0113 33.8433,26.0113 C35.5663,26.0113 36.9993,27.3613 37.6473,28.8223 L37.6473,28.8223 Z" id="Stroke-7" stroke="#DFD5C5"></path>
            </g>
        </g>
    </g>
</svg>

<svg width="47" height="41" viewBox="0 0 47 41" xmlns="http://www.w3.org/2000/svg"><title>Page 1</title><g fill="none" fill-rule="evenodd"><path d="M42.327 32.342l-7.221-3.61a2.756 2.756 0 0 1-1.522-2.464v-2.833c.202-.231.435-.528.683-.88a16.603 16.603 0 0 0 2.244-4.522 2.266 2.266 0 0 0 1.608-2.158V12.85c0-.665-.295-1.26-.756-1.676v-4.37S38.26 0 29.048 0c-9.214 0-8.316 6.804-8.316 6.804v4.37a2.256 2.256 0 0 0-.755 1.677v3.024c0 .797.418 1.498 1.045 1.903.755 3.29 2.734 5.657 2.734 5.657v2.763c0 1.007-.55 1.935-1.435 2.417l-6.744 3.679a6.063 6.063 0 0 0-3.16 5.323v2.449h33.262v-2.301a6.064 6.064 0 0 0-3.352-5.423" fill="#1E1348"/><path d="M13.743 32.16l4.495-2.452c-.026-.025-.004-.032.05-.027l2.2-1.199a2.756 2.756 0 0 0 1.434-2.419V23.3s-.802-.964-1.58-2.512h-.002a16.698 16.698 0 0 1-.3-.64 13.55 13.55 0 0 1-.333-.805c-.007-.016-.012-.033-.018-.049-.082-.22-.158-.446-.232-.678l-.058-.189a13.039 13.039 0 0 1-.21-.785 2.261 2.261 0 0 1-1.046-1.9v-3.025c0-.665.295-1.26.756-1.676v-4.27c-1.069-.828-2.724-1.614-5.292-1.614-7.229 0-7.56 6.048-7.56 6.048v3.776c-.397.36-.756.872-.756 1.447v2.612c0 .688.363 1.293.903 1.643.652 2.841 2.843 4.885 2.843 4.885v2.387c0 .87-.475 1.671-1.24 2.088L2.73 33.22A5.237 5.237 0 0 0 0 37.817v2.114h10.583v-2.448a6.063 6.063 0 0 1 3.16-5.323" fill="#1E1348"/><path d="M37.647 28.822c.648-1.46 2.081-2.81 3.804-2.81 2.32 0 3.991 1.887 4.201 4.137 0 0 .114.56-.135 1.564-.34 1.37-1.139 2.586-2.216 3.514l-5.654 4.838-5.653-4.838c-1.078-.928-1.876-2.145-2.216-3.514-.25-1.005-.136-1.564-.136-1.564.21-2.25 1.881-4.138 4.201-4.138 1.723 0 3.156 1.35 3.804 2.811" fill="#B00D23"/><path d="M37.647 28.822c.648-1.46 2.081-2.81 3.804-2.81 2.32 0 3.991 1.887 4.201 4.137 0 0 .114.56-.135 1.564-.34 1.37-1.139 2.586-2.216 3.514l-5.654 4.838-5.653-4.838c-1.078-.928-1.876-2.145-2.216-3.514-.25-1.005-.136-1.564-.136-1.564.21-2.25 1.881-4.138 4.201-4.138 1.723 0 3.156 1.35 3.804 2.811z" stroke="#DFD5C5"/></g></svg>
